X:182
T:Miss Adams Hornpipe TS.182
M:C|
L:1/8
Q:1/2=90
S:Thomas Sands’ MS,1810,Lincolnshire
R:.hornpipe
O:England;Lincolnshire
Z:vmp.Ruairidh Greig, 2011
K:G
“s-q in ms”(dc)|BGBd BGBd|gfge dBAG|(ec)(dB) cABG|F2A2A2″s-q in ms”(ed)|
BGBd BGBd|gfge dBAG|ecdB cABG|D2G2G2||
dc|Bgfg Bgfg|Baba gfed|caga caga|cgag fedc|
BgdB AecA|BdBG fafd|gfge dcBA|B2G2G2|]

